img/svg/net/mosaic.svg

<?xml version="1.0" encoding="iso-8859-1"?>
<!-- Generator: Adobe Illustrator 21.0.2, SVG Export Plug-In . SVG Version: 6.00 Build 0)  -->
<svg version="1.1" id="&#x56FE;&#x5C42;_1" xmlns="http://www.w3.org/2000/svg" xmlns:xlink="http://www.w3.org/1999/xlink" x="0px"
	 y="0px" viewBox="0 0 16 16" style="enable-background:new 0 0 16 16;" xml:space="preserve">
<path d="M7.648,14.132c-0.98,0-1.959,0.004-2.939-0.002c-0.314-0.002-0.55,0.048-0.766,0.343c-0.479,0.652-1.379,0.696-1.932,0.152
	c-0.538-0.529-0.507-1.423,0.066-1.907c0.584-0.494,1.48-0.38,1.925,0.29c0.172,0.26,0.348,0.341,0.639,0.339
	c1.941-0.009,3.881,0.006,5.822-0.011c0.796-0.007,1.521-0.273,2.121-0.807c1.13-1.006,0.831-3.088-0.516-3.686
	c-0.344-0.153-0.548-0.172-0.699,0.287c-0.537,1.635-2.054,2.612-3.7,2.449c-1.68-0.167-2.946-1.421-3.157-3.176
	C4.461,7.988,4.38,7.759,3.906,7.639C1.834,7.111,1.187,4.628,2.706,3.081c0.775-0.789,1.76-1.156,2.851-1.184
	c1.902-0.049,3.805-0.067,5.707-0.084c0.355-0.003,0.62-0.058,0.872-0.369c0.472-0.581,1.337-0.579,1.858-0.066
	c0.501,0.494,0.506,1.337,0.012,1.833c-0.509,0.51-1.405,0.522-1.862-0.051c-0.266-0.333-0.546-0.385-0.92-0.385
	C9.34,2.776,7.456,2.764,5.572,2.748C4.914,2.743,4.3,2.888,3.743,3.238c-0.744,0.467-1.037,1.17-0.997,2.021
	c0.04,0.845,0.365,1.53,1.156,1.934c0.369,0.188,0.607,0.232,0.783-0.289c0.57-1.686,2.118-2.547,3.993-2.293
	c1.545,0.21,2.74,1.557,2.845,3.254c0.022,0.35,0.156,0.472,0.471,0.571c1.365,0.428,2.026,1.311,2.067,2.695
	c0.037,1.257-0.583,2.133-1.882,2.655c-0.565,0.227-1.151,0.348-1.761,0.347C9.494,14.13,8.571,14.132,7.648,14.132z"/>
</svg>

<svg xmlns="http://www.w3.org/2000/svg" viewBox="0 0 16 16"><title>mosaic</title><path d="M7.65,14.13H4.71a.81.81,0,0,0-.77.34A1.27,1.27,0,0,1,2,14.62,1.29,1.29,0,1,1,4,13a.66.66,0,0,0,.64.34c1.94,0,3.88,0,5.82,0a3.16,3.16,0,0,0,2.12-.81,2.31,2.31,0,0,0-.52-3.69c-.34-.15-.55-.17-.7.29A3.52,3.52,0,0,1,4.51,8.4c0-.41-.13-.64-.6-.76a2.68,2.68,0,0,1-1.2-4.56A4,4,0,0,1,5.56,1.9c1.9,0,3.8-.07,5.71-.08a1,1,0,0,0,.87-.37A1.26,1.26,0,0,1,14,1.38a1.31,1.31,0,0,1,0,1.83,1.27,1.27,0,0,1-1.86-.05,1,1,0,0,0-.92-.39q-2.83,0-5.65,0a3.3,3.3,0,0,0-1.83.49,2.1,2.1,0,0,0-1,2A2.11,2.11,0,0,0,3.9,7.19c.37.19.61.23.78-.29a3.47,3.47,0,0,1,4-2.29,3.4,3.4,0,0,1,2.84,3.25.54.54,0,0,0,.47.57,2.66,2.66,0,0,1,2.07,2.7,2.61,2.61,0,0,1-1.88,2.65,4.65,4.65,0,0,1-1.76.35Z"/></svg>
